X: 130022
T: HORNPIPE
R: Hornpipe.
%R: hornpipe, reel
B: James Kerr "Merry Melodies" v.1 p.30 s.0 #22
Z: 2016 John Chambers <jc:trillian.mit.edu>
M: C
L: 1/8
K: D
(Ac) |\
vd2D2 D2fd | ue2E2 E2ef |\
gfed cdec | edcB ABce |\
d2D2 D2fd | ue2E2 E2ef |\
gfed cdec | d2d2d2 :|
|: (AG) |\
FAFA dAFA | GBGB ecAG |\
FAFA dAFA | G2E2 E2(AG) |\
FAFA dAFA | GBGB ecAf |\
gfed cdec | d2d2d2 :|

%%sep 1 1 500
%%sep 1 1 500

